img/form/tag1.svg

<svg width="18" height="19" viewBox="0 0 18 19" fill="none" xmlns="http://www.w3.org/2000/svg">
<path fill-rule="evenodd" clip-rule="evenodd" d="M0.460717 1.02992C0.296936 1.07716 0.0778572 1.30865 0.0305145 1.48447C0.00510084 1.57893 -0.00489568 1.93146 0.00224972 2.48361L0.0133022 3.33679L0.107741 3.47941C0.216893 3.64428 0.38071 3.75543 0.564871 3.78955L0.694086 3.81352L0.705667 4.24435C0.716684 4.65237 0.722914 4.6843 0.823408 4.84675C0.900599 4.97148 0.980923 5.0451 1.11785 5.11664C1.2918 5.20755 1.3365 5.21501 1.70687 5.21501H2.10764V6.70758C2.10764 7.5285 2.12422 8.36421 2.14453 8.56475C2.27984 9.90258 2.82148 11.2185 3.65689 12.2388C3.89037 12.524 4.43131 13.0612 4.71304 13.2878C5.50048 13.9211 6.62195 14.4453 7.62245 14.6476C11.6304 15.4582 15.4571 12.6354 15.8688 8.56475C15.8891 8.36421 15.9057 7.5285 15.9057 6.70758V5.21501H16.3064C16.6768 5.21501 16.7215 5.20755 16.8955 5.11664C17.0324 5.0451 17.1127 4.97148 17.1899 4.84675C17.2904 4.6843 17.2966 4.65237 17.3076 4.24435L17.3192 3.81352L17.4484 3.78955C17.6327 3.7554 17.7964 3.64425 17.9056 3.4793L18 3.33658V2.39845V1.46032L17.9056 1.31759C17.8536 1.23912 17.7507 1.13726 17.6768 1.09132L17.5424 1.00777L13.9522 0.998301C11.2907 0.991294 10.3365 0.999427 10.2634 1.02967C10.0925 1.10051 10.02 1.31583 10.1047 1.50166C10.1961 1.70241 10.0398 1.69431 13.8272 1.69431H17.3136V2.39845V3.10259H9.00665H0.699683V2.39845V1.69431H4.18615C7.97345 1.69431 7.81717 1.70241 7.90862 1.50166C7.9618 1.38491 7.9618 1.29957 7.90862 1.18282C7.81703 0.981718 7.98007 0.989886 4.12455 0.993336C2.003 0.995238 0.529953 1.00995 0.460717 1.02992ZM8.83453 1.03932C8.52939 1.20849 8.65705 1.69431 9.00665 1.69431C9.18501 1.69431 9.35864 1.52232 9.35864 1.34565C9.35864 1.08132 9.0666 0.910635 8.83453 1.03932ZM16.6021 4.15L16.592 4.49327H9.00665H1.42126L1.4112 4.15L1.40113 3.80673H9.00665H16.6122L16.6021 4.15ZM15.2011 6.70251C15.2007 7.52065 15.1849 8.33791 15.1658 8.51866C15.0844 9.29248 14.8901 9.94933 14.5329 10.6589C14.2498 11.2213 13.9546 11.6486 13.5399 12.096L13.2481 12.4109L13.2282 11.163C13.2069 9.83336 13.1927 9.70609 13.0014 9.13637C12.5333 7.74157 11.3208 6.67114 9.85143 6.35551C9.47783 6.27523 8.61344 6.26562 8.24987 6.33766C7.38824 6.50838 6.64205 6.90498 6.0292 7.51794C5.4487 8.09857 5.07513 8.76937 4.88048 9.58068C4.81786 9.8416 4.80589 10.0419 4.78692 11.1439L4.76517 12.4079L4.48358 12.1097C3.74067 11.323 3.17231 10.235 2.95087 9.1758C2.83264 8.61016 2.81222 8.24922 2.81191 6.72011L2.81162 5.21501H9.00665H15.2017L15.2011 6.70251ZM9.83383 7.07648C11.1105 7.3938 12.0876 8.36949 12.4297 9.6687C12.4983 9.92951 12.5048 10.0628 12.5175 11.4684L12.5312 12.9865L12.3068 13.1283C11.6685 13.5314 10.8638 13.846 10.1063 13.9883C9.77399 14.0508 9.56202 14.0662 9.02425 14.0671C8.32164 14.0683 8.05494 14.038 7.4869 13.8928C6.86877 13.7347 6.23705 13.4634 5.70629 13.1281L5.4821 12.9865L5.4958 11.4684C5.5085 10.0603 5.51487 9.92997 5.58397 9.6687C5.90361 8.45976 6.75057 7.54652 7.91605 7.15425C8.48588 6.96244 9.25033 6.93146 9.83383 7.07648ZM8.49627 8.12181C8.35589 8.14937 8.10598 8.24109 7.91548 8.33492C7.63833 8.47145 7.52928 8.55147 7.27827 8.8025C7.02695 9.05388 6.94754 9.16225 6.81111 9.43985C6.45458 10.1654 6.45458 10.8972 6.81111 11.6227C6.94754 11.9003 7.02695 12.0087 7.27827 12.26C7.53143 12.5132 7.63593 12.5896 7.91548 12.7255C8.92784 13.2179 10.0214 13.0206 10.795 12.2059C11.2114 11.7674 11.4706 11.1251 11.4706 10.5313C11.4706 9.93747 11.2114 9.29512 10.795 8.85661C10.1827 8.21183 9.36635 7.95088 8.49627 8.12181ZM9.36572 8.80982C10.1595 8.9754 10.7666 9.7214 10.7666 10.5313C10.7666 11.4815 9.95664 12.2916 9.00665 12.2916C8.058 12.2916 7.2467 11.4801 7.2467 10.5313C7.2467 9.7408 7.82495 9.00811 8.59651 8.82091C8.82837 8.76465 9.12844 8.76032 9.36572 8.80982ZM8.66635 9.53808C7.78331 9.85378 7.70608 11.0607 8.54266 11.4717C8.82752 11.6116 9.18578 11.6116 9.47064 11.4717C9.84822 11.2862 10.0436 10.9655 10.0436 10.5313C10.0436 10.2313 9.97047 10.0307 9.7837 9.81794C9.53133 9.53048 9.03523 9.40619 8.66635 9.53808ZM9.17754 10.2294C9.4151 10.3522 9.40799 10.731 9.16603 10.8413C8.98543 10.9236 8.78859 10.8642 8.70482 10.7022C8.5396 10.3826 8.85804 10.0641 9.17754 10.2294ZM8.83453 15.5446C8.52939 15.7138 8.65705 16.1996 9.00665 16.1996C9.18501 16.1996 9.35864 16.0276 9.35864 15.8509C9.35864 15.5866 9.0666 15.4159 8.83453 15.5446ZM7.86603 16.535C7.72087 16.6107 7.67148 16.6898 7.67022 16.8486C7.66923 16.9689 7.69165 17.0089 7.84114 17.153C8.12418 17.4259 8.59056 17.6079 9.00665 17.6079C9.42274 17.6079 9.88913 17.4259 10.1722 17.153C10.3175 17.0128 10.3442 16.9668 10.3442 16.8562C10.3442 16.6805 10.2586 16.5605 10.0991 16.5127C9.94977 16.4679 9.90475 16.4845 9.65192 16.6776C9.48187 16.8074 9.20704 16.9037 9.00665 16.9037C8.80626 16.9037 8.53143 16.8074 8.36138 16.6776C8.08074 16.4633 8.03097 16.449 7.86603 16.535ZM6.78024 17.5911C6.6751 17.6963 6.65064 17.795 6.69108 17.9512C6.75979 18.2164 7.61006 18.7554 8.21467 18.917C8.4409 18.9774 8.59662 18.9922 9.00665 18.9922C9.41669 18.9922 9.5724 18.9774 9.79863 18.917C10.4012 18.7559 11.2541 18.2141 11.3229 17.9487C11.3872 17.7005 11.2432 17.5023 10.9988 17.5023C10.8775 17.5023 10.8243 17.5277 10.678 17.6556C10.2979 17.9879 9.92577 18.1748 9.46994 18.2624C8.69655 18.411 7.9598 18.2016 7.3353 17.6556C7.18897 17.5277 7.13582 17.5023 7.01453 17.5023C6.90597 17.5023 6.84659 17.5248 6.78024 17.5911Z" fill="white"/>
</svg>

<svg width="18" height="19" fill="none" xmlns="http://www.w3.org/2000/svg"><path fill-rule="evenodd" clip-rule="evenodd" d="M.46 1.03c-.163.047-.382.279-.43.454-.025.095-.035.447-.028 1l.011.853.095.142a.703.703 0 00.457.31l.13.025.01.43c.012.408.018.44.118.603a.683.683 0 00.295.27c.174.09.218.098.589.098h.4v1.493c0 .82.017 1.656.038 1.857a6.993 6.993 0 001.512 3.674c.233.285.774.822 1.056 1.049.787.633 1.909 1.157 2.91 1.36 4.007.81 7.834-2.013 8.246-6.083.02-.2.037-1.036.037-1.857V5.215h.4c.37 0 .415-.007.59-.098a.683.683 0 00.294-.27c.1-.163.107-.195.118-.603l.011-.43.13-.024a.705.705 0 00.457-.31L18 3.336V1.46l-.094-.142a.903.903 0 00-.23-.227l-.134-.083-3.59-.01c-2.661-.007-3.616.001-3.689.032-.17.07-.243.286-.158.472.091.2-.065.192 3.722.192h3.487v1.409H.7V1.694h3.486c3.787 0 3.631.008 3.723-.192a.339.339 0 000-.32C7.817.983 7.98.99 4.125.994 2.003.995.53 1.01.46 1.03zm8.375.01c-.306.168-.178.654.172.654.178 0 .352-.172.352-.348a.355.355 0 00-.524-.307zm7.767 3.11l-.01.343H1.421l-.01-.343-.01-.343h15.211l-.01.343zm-1.4 2.553c-.001.818-.017 1.635-.036 1.816a5.926 5.926 0 01-.633 2.14 5.89 5.89 0 01-.993 1.437l-.292.315-.02-1.248c-.021-1.33-.035-1.457-.227-2.027-.468-1.394-1.68-2.465-3.15-2.78-.373-.08-1.238-.09-1.601-.018a4.25 4.25 0 00-2.22 1.18A4.22 4.22 0 004.88 9.58c-.062.26-.074.46-.093 1.563l-.022 1.264-.281-.298A6.318 6.318 0 012.95 9.176c-.118-.566-.139-.927-.14-2.456V5.215h12.391v1.488zm-5.368.373c1.277.318 2.254 1.293 2.596 2.593.068.26.075.394.088 1.8l.013 1.518-.224.141a6.552 6.552 0 01-2.2.86c-.333.063-.545.078-1.083.08-.702 0-.97-.03-1.537-.175a6.382 6.382 0 01-1.78-.765l-.225-.142.014-1.518c.012-1.408.019-1.538.088-1.8.32-1.208 1.167-2.121 2.332-2.514a3.706 3.706 0 011.918-.078zM8.496 8.122c-.14.027-.39.12-.58.213-.278.136-.387.216-.638.467-.251.252-.33.36-.467.638-.356.725-.356 1.457 0 2.183.137.277.216.386.467.637.253.253.358.33.637.466 1.013.492 2.106.295 2.88-.52a2.53 2.53 0 00.676-1.675 2.53 2.53 0 00-.676-1.674 2.43 2.43 0 00-2.299-.735zm.87.688c.793.165 1.4.911 1.4 1.721 0 .95-.81 1.76-1.76 1.76-.948 0-1.76-.81-1.76-1.76a1.8 1.8 0 011.35-1.71 1.9 1.9 0 01.77-.011zm-.7.728c-.883.316-.96 1.523-.123 1.934.285.14.643.14.928 0 .377-.186.573-.506.573-.94 0-.3-.074-.501-.26-.714-.253-.288-.749-.412-1.118-.28zm.512.691c.237.123.23.502-.012.612-.18.083-.377.023-.461-.139a.346.346 0 01.473-.473zm-.343 5.316c-.306.169-.178.655.172.655a.373.373 0 00.352-.35.355.355 0 00-.524-.305zm-.969.99c-.145.076-.195.155-.196.314 0 .12.022.16.171.304.283.273.75.455 1.166.455.416 0 .882-.182 1.165-.455.146-.14.172-.186.172-.297 0-.176-.085-.296-.245-.343-.15-.045-.194-.029-.447.165a1.2 1.2 0 01-.645.226 1.2 1.2 0 01-.646-.226c-.28-.215-.33-.229-.495-.143zM6.78 17.591c-.105.105-.13.204-.089.36.069.265.92.804 1.524.966.226.06.382.075.792.075.41 0 .565-.015.792-.075.602-.161 1.455-.703 1.524-.968.064-.248-.08-.447-.324-.447-.122 0-.175.026-.321.154-.38.332-.752.519-1.208.606-.773.149-1.51-.06-2.135-.606-.146-.128-.2-.154-.32-.154-.109 0-.168.023-.235.09z" fill="#fff"/></svg>
